X:1
T:How Can I Keep from Singing?
T:How Can I Keep from Singing?
T:Robert Lowry
T:Robert Lowry, 1860
T:Public Domain Courtesy of the Cyber Hymnal™
T:Public Domain Courtesy of the Cyber Hymnal™
C:Robert Lowry
Z:Public Domain
Z:Courtesy of the Cyber Hymnal™
%%score ( 1 2 ) ( 3 4 )
L:1/8
Q:1/4=150
M:3/2
K:F
V:1 treble 
V:2 treble 
V:3 bass 
V:4 bass 
V:1
 C2 | [CF]2 [CG]2 [FA]6 [CF]2 | [DG]2 [DF]2 [B,D]6 C2 | [CF]2 [FA]2 [Fc]6 [FA]2 | %4
w: 1.~My|life flows on in|end- less song; A-|bove earth’s la- men-|
w: 2.~What|though my joys and|com- forts die? The|Lord my Sav- ior|
w: 3.~I|lift mine eyes; the|cloud grows thin; I|see the blue a-|
 [FA]2 [EG]6 z2 C2 | [CF]2 [EG]2 [FA]6 [CF]2 | [DG]2 [DF]2 [DF]6 [B,D]2 | C2 [CF]2 [FA]6 [CG]2 | %8
w: ta- tion I|hear the sweet though|far off hymn That|hails a new cre-|
w: liv- eth; What|though the dark- ness|ga- ther round! Songs|in the night He|
w: bove it; And|day by day this|path- way smoothes Since|first I learned to|
 [CG]2 [CF]6 z2 [FA]2 | [Ac]3 [Ac] [Ac]6 [FA]2 | [EG]2 [EA]2 F6 [EG]2 | [FA]3 [FA] [FA]6 [EG]2 | %12
w: a- tion: Through|all the tu- mult|and the strife I|hear the mu- sic|
w: giv- eth: No|storm can shake my|in- most calm While|to that re- fuge|
w: love it: The|peace of Christ makes|fresh my heart, A|fount- ain ev- er|
 [FA]2 [Fc]6 z2 [FA]2 | [Fc]3 [Fc] [Fc]6 [FA]2 | [DF]2 [B,D]2 [A,C]6 C2 | [CF]2 [EG]2 [FA]6 [EG]2 | %16
w: ring- ing; It|finds an e- cho|in my soul— How|can I keep from|
w: cling- ing; Since|Christ is Lord of|Heav’n and earth, How|can I keep from|
w: spring- ing: All|things are mine since|I am His— How|can I keep from|
 [EG]2 F8 |] %17
w: sing- ing?|
w: sing- ing?|
w: sing- ing?|
V:2
 C2 | x12 | x10 C2 | x12 | x10 C2 | x12 | x12 | C2 x10 | x12 | x12 | x4 F6 x2 | x12 | x12 | x12 | %14
 x10 C2 | x12 | x2 F8 |] %17
V:3
 C,2 | [F,A,]2 [F,B,]2 [F,C]6 [F,A,]2 | [B,,B,]2 [B,,B,]2 [B,,F,]6 [F,A,]2 | %3
 [F,A,]2 [F,C]2 [F,A,]6 [F,C]2 | [C,C]2 [C,C]6 z2 [C,A,]2 | [A,,C]2 [C,C]2 [F,C]6 [F,A,]2 | %6
 [B,,B,]2 [B,,B,]2 [B,,F,]6 [B,,F,]2 | [A,,F,]2 [F,,A,]2 [C,C]6 [C,B,]2 | %8
 [F,,B,]2 [F,,A,]6 z2 F,2 | F,3 F, F,6 [F,C]2 | [C,C]2 [C,C]2 [F,,A,]6 [C,C]2 | %11
 [F,C]3 [F,C] [F,C]6 [C,C]2 | [F,C]2 [F,A,]6 z2 [F,C]2 | [F,A,]3 [F,A,] [F,A,]6 [F,,F,C]2 | %14
 [B,,B,]2 [D,F,]2 F,6 [F,A,]2 | [A,,C]2 [C,C]2 [F,C]6 [C,B,]2 | [C,B,]2 [F,A,]8 |] %17
V:4
 C,2 | x12 | x12 | x12 | x12 | x12 | x12 | x12 | x10 F,2 | F,3 F, F,6 x2 | x12 | x12 | x12 | x12 | %14
 x4 F,6 x2 | x12 | x10 |] %17

